X:1
T:Title
%%score { ( 1 3 ) | 2 }
L:1/8
M:4/4
K:Eb
V:1 treble nm="Grand Piano"
V:3 treble 
V:2 bass 
V:1
 z4 z2 z[Q:1/4=108] E | G2 [GB]2 [Ge]3 [EGB] | e>d c>B A>G F>E | D2 [DF]2 [DA]3 [DB] | %4
 [Fd]>[Ac] [GB]>[FA] G3 E | G2 [GB]2 [Ge]3 G | A2 c2 f>e d>c | B2 e2 [Ad]>[Ac] [DA]>[A,DF] | %8
 [G,E]6 z2 | [GB]4 z4 | [Fd]4 [DF]2 z2 | [FA]2 [=EG]2 [FA]2 [DF]2 | %12
 [EG]>[Ac] [GB]>[_G=A] [=GB]>[GB] [Ac]>[Ad] | [Ge]4 z4 | [Fd]4 [DF]2 z2 | F2 B2 d>f e>=A | %16
 c4 [B,DB]2 z2 | [DFA]2 [DFA]2 [FAd]3 [DAc] | [Ac]>[GB] [_G=A]>[=GB] [Ge]4 | %19
 [DFA]2 [DFA]2 [FAd]3 [DAc] | [Ac]>[GB] [_G=A]>[=GB] [Ge]4 | e2 G2 d2 F2 | c2 E2 B2 D2 | %23
 AC G>F E>G [GB]>[Ge] |[M:7/8] d2 [Ad]2 [Ge]3 |] %25
V:2
 z4 z2 z [E,G,] | [E,B,E]2 [E,E]2 [E,B,]3 E, | E>D C>B, A,>[K:bass]G, F,>E, | %3
 [B,,F,B,]2 [B,,A,]2 [B,,F,]3 [B,,F,] | [B,,B,]>[B,,B,] [B,,B,]>[B,,B,] [E,B,E]3 [E,G,] | %5
 [E,B,E]2 [E,B,]2 [E,B,]3 [E,B,E] | [A,CE]2 [A,EA]2 [A,CA]>[A,CA] [A,DA]>[A,EA] | %7
 [B,EG]2 [B,G]2[K:bass] [B,,B,]>[B,,B,] [B,,F,]>B,, | E,6 z2 | E,2 E,2 [E,B,E]2 [E,B,]2 | %10
 [B,,B,]4 [B,,B,]2 z2 | [B,,B,]2 [B,,B,]2 [B,,B,]2 [B,,B,]2 | %12
 [E,B,]>[E,E] [E,E]>[E,E] [E,E]>[E,E] [E,D]>[E,C] | [E,B,]2 E,2 [E,B,E]2 [E,B,]2 | %14
 [B,,B,]4 [B,,B,]2 z2 | [F,B,D]2 [F,B,D]2 [F,B,F]>[F,DF] [F,CF]>[F,CF] | [F,=A,E]4 B,,2 z2 | %17
 B,2 B,2 B,3 B,, | [E,E]>[E,E] [E,E]>[E,E] [E,B,]4 | B,2 B,2 B,3 B,, | %20
 [E,E]>[E,E] [E,E]>[E,E] [E,B,]4 | E2 G,2 D2 F,2 | C2 E,2 B,2 D,2 | %23
 A,C, G,>F, [E,G,]>[E,B,E] [E,B,]>[E,B,] |[M:7/8] [B,F]2 [B,,B,]2 [E,B,]3 |] %25
V:3
 x8 | x8 | x8 | x8 | x8 | x8 | x8 | x8 | x8 | E2 E2 G2 [GB]>[Ge] | x8 | x8 | x8 | %13
 z2 B,2 G2 [GB]>[Ge] | x8 | x8 | x8 | x8 | x8 | x8 | x8 | x8 | x8 | x8 |[M:7/8] x7 |] %25

